src/gui/emoticons/lion.svg

<svg xmlns="http://www.w3.org/2000/svg" xmlns:xlink="http://www.w3.org/1999/xlink" width="16pt" height="16pt" version="1.1" viewBox="0 0 16 16"><defs><linearGradient id="linear0" x1="64" x2="64" y1="122.24" y2="5.643" gradientTransform="matrix(0.125,0,0,0.125,0,0)" gradientUnits="userSpaceOnUse"><stop offset=".07" style="stop-color:#603813;stop-opacity:1"/><stop offset=".834" style="stop-color:#8c6239;stop-opacity:1"/></linearGradient><linearGradient id="linear1" x1="64" x2="64" y1="101.46" y2="27.886" gradientTransform="matrix(0.125,0,0,0.125,0,0)" gradientUnits="userSpaceOnUse"><stop offset="0" style="stop-color:#e6a500;stop-opacity:1"/><stop offset=".077" style="stop-color:#eaac0d;stop-opacity:1"/><stop offset=".302" style="stop-color:#f3be2d;stop-opacity:1"/><stop offset=".52" style="stop-color:#facb44;stop-opacity:1"/><stop offset=".723" style="stop-color:#fed252;stop-opacity:1"/><stop offset=".899" style="stop-color:#ffd557;stop-opacity:1"/></linearGradient><linearGradient id="linear2" x1="64" x2="64" y1="66.629" y2="75.856" gradientTransform="matrix(0.125,0,0,0.125,0,0)" gradientUnits="userSpaceOnUse"><stop offset=".163" style="stop-color:#4d4d4d;stop-opacity:1"/><stop offset=".367" style="stop-color:#373737;stop-opacity:1"/><stop offset=".784" style="stop-color:#0f0f0f;stop-opacity:1"/><stop offset="1" style="stop-color:#000;stop-opacity:1"/></linearGradient></defs><g id="surface1"><path style="stroke:none;fill-rule:nonzero;fill:url(#linear0)" d="M 7.988281 15.28125 C 7.703125 15.171875 6.617188 14.722656 5.640625 14.09375 C 4.953125 13.648438 4.449219 13.0625 4.148438 12.710938 C 3.90625 12.433594 3.828125 12.339844 3.695312 12.339844 C 3.636719 12.339844 3.582031 12.363281 3.546875 12.402344 C 3.484375 12.46875 3.480469 12.550781 3.480469 12.609375 C 3.484375 12.71875 3.472656 12.800781 3.453125 12.859375 C 2.378906 12.03125 1.96875 11.070312 1.820312 10.566406 C 1.777344 10.421875 1.675781 10.332031 1.554688 10.332031 C 1.453125 10.332031 1.363281 10.390625 1.285156 10.511719 C 1.277344 10.527344 1.265625 10.550781 1.261719 10.566406 C 1.222656 10.671875 1.152344 10.753906 1.085938 10.8125 C 0.417969 9.117188 1.125 7.519531 1.464844 6.90625 C 1.515625 6.816406 1.511719 6.710938 1.460938 6.625 C 1.410156 6.535156 1.3125 6.484375 1.210938 6.484375 C 1.179688 6.484375 1.152344 6.484375 1.125 6.496094 L 0.75 6.605469 C 0.804688 5.140625 1.777344 4.046875 2.203125 3.640625 C 2.28125 3.566406 2.3125 3.453125 2.277344 3.351562 C 2.242188 3.246094 2.152344 3.171875 2.042969 3.152344 C 1.917969 3.136719 1.789062 3.09375 1.695312 3.054688 C 2.859375 1.117188 4.585938 0.707031 5.839844 0.707031 C 6.824219 0.707031 7.621094 0.949219 7.871094 1.039062 C 7.90625 1.070312 7.953125 1.085938 8 1.085938 C 8.046875 1.085938 8.09375 1.070312 8.128906 1.035156 C 8.378906 0.949219 9.175781 0.703125 10.164062 0.703125 C 11.417969 0.703125 13.140625 1.113281 14.304688 3.050781 C 14.210938 3.089844 14.082031 3.136719 13.960938 3.152344 C 13.847656 3.167969 13.757812 3.242188 13.722656 3.347656 C 13.691406 3.453125 13.71875 3.566406 13.796875 3.640625 C 14.222656 4.046875 15.199219 5.136719 15.253906 6.605469 L 14.875 6.492188 C 14.847656 6.484375 14.820312 6.480469 14.792969 6.480469 C 14.6875 6.480469 14.59375 6.535156 14.539062 6.625 C 14.488281 6.710938 14.488281 6.816406 14.535156 6.90625 C 14.878906 7.519531 15.582031 9.117188 14.914062 10.8125 C 14.847656 10.753906 14.777344 10.671875 14.734375 10.558594 C 14.730469 10.546875 14.71875 10.519531 14.710938 10.511719 C 14.636719 10.394531 14.546875 10.332031 14.445312 10.332031 C 14.320312 10.332031 14.222656 10.421875 14.179688 10.566406 C 14.03125 11.074219 13.621094 12.035156 12.539062 12.867188 C 12.511719 12.792969 12.5 12.707031 12.503906 12.609375 C 12.503906 12.578125 12.507812 12.480469 12.4375 12.40625 C 12.398438 12.367188 12.34375 12.34375 12.289062 12.34375 C 12.15625 12.34375 12.066406 12.445312 11.828125 12.714844 C 11.511719 13.074219 10.980469 13.671875 10.261719 14.089844 C 9.261719 14.671875 8.253906 15.152344 7.988281 15.28125 Z M 7.988281 15.28125"/><path style="stroke:none;fill-rule:nonzero;fill:#61422a;fill-opacity:1" d="M 10.160156 0.890625 C 11.828125 0.890625 13.125 1.585938 14.019531 2.949219 C 13.988281 2.957031 13.960938 2.960938 13.933594 2.964844 C 13.75 2.992188 13.601562 3.113281 13.546875 3.289062 C 13.488281 3.460938 13.535156 3.648438 13.667969 3.773438 C 14.050781 4.140625 14.894531 5.082031 15.042969 6.347656 L 14.925781 6.3125 C 14.882812 6.300781 14.835938 6.292969 14.789062 6.292969 C 14.621094 6.292969 14.464844 6.382812 14.378906 6.527344 C 14.292969 6.671875 14.289062 6.847656 14.371094 6.996094 C 14.675781 7.546875 15.28125 8.90625 14.859375 10.390625 C 14.71875 10.1875 14.554688 10.144531 14.445312 10.144531 C 14.28125 10.144531 14.078125 10.242188 14 10.511719 C 13.867188 10.953125 13.53125 11.757812 12.683594 12.5 C 12.667969 12.414062 12.632812 12.335938 12.574219 12.277344 C 12.5 12.199219 12.394531 12.152344 12.289062 12.152344 C 12.074219 12.152344 11.953125 12.289062 11.6875 12.585938 C 11.378906 12.9375 10.859375 13.523438 10.167969 13.925781 C 9.25 14.460938 8.328125 14.910156 7.984375 15.074219 C 7.621094 14.933594 6.636719 14.507812 5.742188 13.933594 C 5.074219 13.503906 4.582031 12.933594 4.289062 12.589844 C 4.03125 12.289062 3.914062 12.152344 3.695312 12.152344 C 3.585938 12.152344 3.484375 12.195312 3.410156 12.273438 C 3.351562 12.332031 3.316406 12.40625 3.300781 12.492188 C 2.464844 11.75 2.128906 10.953125 2 10.515625 C 1.921875 10.242188 1.71875 10.144531 1.554688 10.144531 C 1.441406 10.144531 1.28125 10.191406 1.140625 10.390625 C 0.71875 8.90625 1.324219 7.546875 1.628906 6.996094 C 1.710938 6.847656 1.707031 6.675781 1.621094 6.53125 C 1.539062 6.386719 1.378906 6.296875 1.210938 6.296875 C 1.164062 6.296875 1.117188 6.300781 1.074219 6.316406 L 0.957031 6.347656 C 1.105469 5.082031 1.953125 4.140625 2.332031 3.777344 C 2.464844 3.648438 2.511719 3.464844 2.453125 3.292969 C 2.398438 3.117188 2.25 2.992188 2.066406 2.96875 C 2.039062 2.964844 2.007812 2.957031 1.980469 2.953125 C 2.875 1.585938 4.171875 0.890625 5.839844 0.890625 C 6.757812 0.890625 7.503906 1.109375 7.777344 1.203125 C 7.839844 1.25 7.917969 1.273438 8 1.273438 C 8.082031 1.273438 8.160156 1.25 8.222656 1.203125 C 8.496094 1.109375 9.242188 0.890625 10.160156 0.890625 M 10.160156 0.515625 C 9.121094 0.515625 8.28125 0.78125 8.046875 0.867188 C 8.027344 0.875 8.011719 0.886719 8 0.898438 C 7.988281 0.886719 7.972656 0.871094 7.953125 0.867188 C 7.71875 0.785156 6.878906 0.515625 5.839844 0.515625 C 4.4375 0.515625 2.664062 0.996094 1.480469 3.046875 C 1.453125 3.097656 1.472656 3.160156 1.527344 3.183594 C 1.636719 3.234375 1.824219 3.3125 2.015625 3.339844 C 2.097656 3.351562 2.132812 3.449219 2.074219 3.503906 C 1.632812 3.925781 0.5625 5.117188 0.558594 6.71875 C 0.558594 6.777344 0.605469 6.820312 0.660156 6.820312 C 0.671875 6.820312 0.679688 6.820312 0.691406 6.816406 L 1.175781 6.671875 C 1.1875 6.671875 1.199219 6.667969 1.207031 6.667969 C 1.28125 6.667969 1.335938 6.742188 1.296875 6.8125 C 0.96875 7.40625 0.171875 9.15625 0.953125 10.988281 C 0.96875 11.027344 1.007812 11.046875 1.046875 11.046875 C 1.070312 11.046875 1.089844 11.042969 1.109375 11.03125 C 1.210938 10.960938 1.363281 10.828125 1.4375 10.621094 C 1.441406 10.617188 1.441406 10.613281 1.441406 10.613281 C 1.484375 10.546875 1.523438 10.519531 1.554688 10.519531 C 1.59375 10.519531 1.625 10.566406 1.640625 10.617188 C 1.792969 11.140625 2.234375 12.191406 3.425781 13.074219 C 3.445312 13.089844 3.464844 13.09375 3.488281 13.09375 C 3.523438 13.09375 3.558594 13.078125 3.578125 13.042969 C 3.625 12.960938 3.675781 12.816406 3.667969 12.601562 C 3.664062 12.550781 3.671875 12.527344 3.691406 12.527344 C 3.824219 12.527344 4.453125 13.5625 5.535156 14.257812 C 6.699219 15.007812 7.980469 15.5 8 15.5 C 8.019531 15.5 9.171875 14.949219 10.355469 14.261719 C 11.476562 13.609375 12.148438 12.535156 12.285156 12.535156 C 12.304688 12.535156 12.316406 12.554688 12.3125 12.601562 C 12.300781 12.820312 12.363281 12.960938 12.410156 13.046875 C 12.429688 13.078125 12.464844 13.09375 12.503906 13.09375 C 12.527344 13.09375 12.546875 13.085938 12.570312 13.074219 C 13.757812 12.191406 14.203125 11.140625 14.359375 10.617188 C 14.375 10.566406 14.402344 10.519531 14.445312 10.519531 C 14.476562 10.519531 14.511719 10.542969 14.554688 10.609375 C 14.558594 10.613281 14.558594 10.617188 14.558594 10.621094 C 14.636719 10.828125 14.785156 10.960938 14.890625 11.027344 C 14.90625 11.042969 14.929688 11.046875 14.949219 11.046875 C 14.988281 11.046875 15.027344 11.023438 15.042969 10.984375 C 15.824219 9.152344 15.027344 7.40625 14.699219 6.8125 C 14.660156 6.742188 14.714844 6.667969 14.789062 6.667969 C 14.796875 6.667969 14.808594 6.667969 14.820312 6.671875 L 15.304688 6.8125 C 15.316406 6.816406 15.328125 6.820312 15.335938 6.820312 C 15.390625 6.820312 15.441406 6.773438 15.441406 6.71875 C 15.433594 5.113281 14.367188 3.925781 13.925781 3.503906 C 13.863281 3.445312 13.898438 3.347656 13.984375 3.335938 C 14.171875 3.3125 14.363281 3.234375 14.472656 3.183594 C 14.523438 3.15625 14.542969 3.097656 14.515625 3.046875 C 13.335938 0.996094 11.5625 0.515625 10.160156 0.515625 Z M 10.160156 0.515625"/><path style="fill-rule:nonzero;fill:#fbb03b;fill-opacity:1;stroke-width:3;stroke-linecap:butt;stroke-linejoin:round;stroke:#e68d00;stroke-opacity:1;stroke-miterlimit:10" d="M 48.40625 36 C 48.40625 42.0625 43.5 46.96875 37.4375 46.96875 C 31.40625 46.96875 26.5 42.0625 26.5 36 C 26.5 29.9375 31.40625 25.03125 37.4375 25.03125 C 43.5 25.03125 48.40625 29.9375 48.40625 36 Z M 48.40625 36" transform="matrix(0.125,0,0,0.125,0,0)"/><path style="stroke:none;fill-rule:nonzero;fill:#fff;fill-opacity:1" d="M 5.460938 4.5 C 5.460938 4.929688 5.113281 5.28125 4.679688 5.28125 C 4.25 5.28125 3.898438 4.929688 3.898438 4.5 C 3.898438 4.070312 4.25 3.71875 4.679688 3.71875 C 5.113281 3.71875 5.460938 4.070312 5.460938 4.5 Z M 5.460938 4.5"/><path style="fill-rule:nonzero;fill:#fbb03b;fill-opacity:1;stroke-width:3;stroke-linecap:butt;stroke-linejoin:round;stroke:#e68d00;stroke-opacity:1;stroke-miterlimit:10" d="M 101.5 36 C 101.5 42.0625 96.59375 46.96875 90.5625 46.96875 C 84.5 46.96875 79.59375 42.0625 79.59375 36 C 79.59375 29.9375 84.5 25.03125 90.5625 25.03125 C 96.59375 25.03125 101.5 29.9375 101.5 36 Z M 101.5 36" transform="matrix(0.125,0,0,0.125,0,0)"/><path style="stroke:none;fill-rule:nonzero;fill:#fff;fill-opacity:1" d="M 12.101562 4.5 C 12.101562 4.929688 11.75 5.28125 11.320312 5.28125 C 10.886719 5.28125 10.539062 4.929688 10.539062 4.5 C 10.539062 4.070312 10.886719 3.71875 11.320312 3.71875 C 11.75 3.71875 12.101562 4.070312 12.101562 4.5 Z M 12.101562 4.5"/><path style="stroke:none;fill-rule:nonzero;fill:url(#linear1)" d="M 8 12.683594 C 5.074219 12.683594 3.179688 10.921875 3.179688 8.195312 C 3.179688 5.332031 5.074219 3.484375 8 3.484375 C 10.925781 3.484375 12.820312 5.332031 12.820312 8.195312 C 12.820312 10.921875 10.925781 12.683594 8 12.683594 Z M 8 12.683594"/><path style="stroke:none;fill-rule:nonzero;fill:#e68d00;fill-opacity:1" d="M 8 3.671875 C 10.8125 3.671875 12.632812 5.449219 12.632812 8.195312 C 12.632812 10.847656 10.855469 12.496094 8 12.496094 C 5.144531 12.496094 3.367188 10.847656 3.367188 8.195312 C 3.367188 5.449219 5.1875 3.671875 8 3.671875 M 8 3.296875 C 4.800781 3.296875 2.992188 5.429688 2.992188 8.195312 C 2.992188 10.960938 4.855469 12.871094 8 12.871094 C 11.144531 12.871094 13.007812 10.960938 13.007812 8.195312 C 13.007812 5.429688 11.199219 3.296875 8 3.296875 Z M 8 3.296875"/><path style="fill:none;stroke-width:3;stroke-linecap:round;stroke-linejoin:round;stroke:#000;stroke-opacity:1;stroke-miterlimit:10" d="M 64 92.375 L 64 82.875" transform="matrix(0.125,0,0,0.125,0,0)"/><path style="stroke:none;fill-rule:nonzero;fill:#404040;fill-opacity:1" d="M 6.335938 7.222656 C 6.335938 6.738281 5.992188 6.34375 5.5625 6.34375 C 5.132812 6.34375 4.789062 6.738281 4.789062 7.222656 C 4.789062 7.707031 5.132812 8.097656 5.5625 8.097656 C 5.992188 8.097656 6.335938 7.707031 6.335938 7.222656 Z M 6.335938 7.222656"/><path style="stroke:none;fill-rule:nonzero;fill:#404040;fill-opacity:1" d="M 11.210938 7.222656 C 11.210938 6.738281 10.867188 6.34375 10.4375 6.34375 C 10.007812 6.34375 9.664062 6.738281 9.664062 7.222656 C 9.664062 7.707031 10.007812 8.097656 10.4375 8.097656 C 10.867188 8.097656 11.210938 7.707031 11.210938 7.222656 Z M 11.210938 7.222656"/><path style="stroke:none;fill-rule:nonzero;fill:#fff;fill-opacity:1" d="M 8.328125 9.949219 C 8.328125 9.140625 7.625 8.488281 6.757812 8.488281 C 5.890625 8.488281 5.1875 9.140625 5.1875 9.949219 C 5.1875 10.753906 5.890625 11.410156 6.757812 11.410156 C 7.625 11.410156 8.328125 10.753906 8.328125 9.949219 Z M 8.328125 9.949219"/><path style="stroke:none;fill-rule:nonzero;fill:#fff;fill-opacity:1" d="M 10.8125 9.949219 C 10.8125 9.140625 10.109375 8.488281 9.242188 8.488281 C 8.375 8.488281 7.671875 9.140625 7.671875 9.949219 C 7.671875 10.753906 8.375 11.410156 9.242188 11.410156 C 10.109375 11.410156 10.8125 10.753906 10.8125 9.949219 Z M 10.8125 9.949219"/><path style="stroke:none;fill-rule:nonzero;fill:url(#linear2)" d="M 8 9.4375 C 8.378906 9.4375 8.726562 9.042969 8.9375 8.730469 C 9.042969 8.578125 8.933594 8.375 8.746094 8.375 L 7.253906 8.375 C 7.070312 8.375 6.957031 8.578125 7.0625 8.730469 C 7.273438 9.042969 7.621094 9.4375 8 9.4375 Z M 8 9.4375"/><path style="fill:none;stroke-width:3;stroke-linecap:round;stroke-linejoin:round;stroke:#000;stroke-opacity:1;stroke-miterlimit:10" d="M 55.78125 96.21875 L 63.71875 92.5" transform="matrix(0.125,0,0,0.125,0,0)"/><path style="fill:none;stroke-width:3;stroke-linecap:round;stroke-linejoin:round;stroke:#000;stroke-opacity:1;stroke-miterlimit:10" d="M 72.21875 96.21875 L 63.78125 92.5" transform="matrix(0.125,0,0,0.125,0,0)"/></g></svg>

<svg xmlns="http://www.w3.org/2000/svg" width="16pt" height="16pt" viewBox="0 0 16 16"><defs><linearGradient id="a" x1="64" x2="64" y1="122.24" y2="5.643" gradientTransform="scale(.125)" gradientUnits="userSpaceOnUse"><stop offset=".07" style="stop-color:#603813;stop-opacity:1"/><stop offset=".834" style="stop-color:#8c6239;stop-opacity:1"/></linearGradient><linearGradient id="b" x1="64" x2="64" y1="101.46" y2="27.886" gradientTransform="scale(.125)" gradientUnits="userSpaceOnUse"><stop offset="0" style="stop-color:#e6a500;stop-opacity:1"/><stop offset=".077" style="stop-color:#eaac0d;stop-opacity:1"/><stop offset=".302" style="stop-color:#f3be2d;stop-opacity:1"/><stop offset=".52" style="stop-color:#facb44;stop-opacity:1"/><stop offset=".723" style="stop-color:#fed252;stop-opacity:1"/><stop offset=".899" style="stop-color:#ffd557;stop-opacity:1"/></linearGradient><linearGradient id="c" x1="64" x2="64" y1="66.629" y2="75.856" gradientTransform="scale(.125)" gradientUnits="userSpaceOnUse"><stop offset=".163" style="stop-color:#4d4d4d;stop-opacity:1"/><stop offset=".367" style="stop-color:#373737;stop-opacity:1"/><stop offset=".784" style="stop-color:#0f0f0f;stop-opacity:1"/><stop offset="1" style="stop-color:#000;stop-opacity:1"/></linearGradient></defs><path d="M7.988 15.281a14.4 14.4 0 0 1-2.347-1.187c-.688-.446-1.192-1.031-1.493-1.383-.242-.277-.32-.371-.453-.371a.2.2 0 0 0-.148.062c-.063.067-.067.149-.067.207a.7.7 0 0 1-.027.25C2.38 12.031 1.97 11.07 1.82 10.566c-.043-.144-.144-.234-.265-.234q-.153 0-.27.18c-.008.015-.02.039-.023.054a.6.6 0 0 1-.176.246c-.668-1.695.039-3.292.379-3.906a.285.285 0 0 0-.254-.422c-.031 0-.059 0-.086.012l-.375.11C.805 5.14 1.777 4.045 2.203 3.64a.28.28 0 0 0 .074-.29.3.3 0 0 0-.234-.199 1.4 1.4 0 0 1-.348-.097C2.86 1.117 4.585.707 5.84.707c.984 0 1.781.242 2.031.332A.2.2 0 0 0 8 1.086a.18.18 0 0 0 .129-.05 6.5 6.5 0 0 1 2.035-.333c1.254 0 2.977.41 4.14 2.348a1.4 1.4 0 0 1-.343.101.29.29 0 0 0-.238.196.29.29 0 0 0 .074.293c.426.406 1.402 1.496 1.457 2.964l-.379-.113a.295.295 0 0 0-.336.133.29.29 0 0 0-.004.281c.344.614 1.047 2.211.38 3.907a.64.64 0 0 1-.18-.254.2.2 0 0 0-.024-.047c-.074-.117-.164-.18-.266-.18-.125 0-.222.09-.265.234-.149.508-.559 1.47-1.64 2.301a.7.7 0 0 1-.036-.258c0-.03.004-.129-.066-.203a.21.21 0 0 0-.149-.062c-.133 0-.223.101-.46.37-.317.36-.849.958-1.567 1.376-1 .582-2.008 1.062-2.274 1.191m0 0" style="stroke:none;fill-rule:nonzero;fill:url(#a)"/><path d="M10.16.89c1.668 0 2.965.696 3.86 2.06a1 1 0 0 1-.086.015.47.47 0 0 0-.387.324.46.46 0 0 0 .121.484c.383.368 1.227 1.309 1.375 2.575l-.117-.035a.479.479 0 0 0-.547.215.47.47 0 0 0-.008.468c.305.55.91 1.91.488 3.395-.14-.203-.304-.246-.414-.246-.164 0-.367.097-.445.367-.133.441-.469 1.246-1.316 1.988a.4.4 0 0 0-.11-.223.4.4 0 0 0-.285-.125c-.215 0-.336.137-.601.434-.31.351-.829.937-1.52 1.34-.918.535-1.84.984-2.184 1.148a14 14 0 0 1-2.242-1.14c-.668-.43-1.16-1-1.453-1.344-.258-.3-.375-.438-.594-.438a.403.403 0 0 0-.395.34c-.835-.742-1.171-1.539-1.3-1.976-.078-.274-.281-.371-.445-.371-.114 0-.274.046-.414.246-.422-1.485.183-2.844.488-3.395a.474.474 0 0 0-.555-.68l-.117.032c.148-1.266.996-2.207 1.375-2.57a.46.46 0 0 0 .121-.485.46.46 0 0 0-.387-.324q-.042-.008-.086-.016C2.875 1.586 4.172.891 5.84.891c.918 0 1.664.218 1.937.312.063.047.141.07.223.07s.16-.023.223-.07A6.3 6.3 0 0 1 10.16.891m0-.375c-1.039 0-1.879.265-2.113.351A.14.14 0 0 0 8 .898c-.012-.011-.027-.027-.047-.03A6.7 6.7 0 0 0 5.84.515c-1.402 0-3.176.48-4.36 2.53a.097.097 0 0 0 .047.138c.11.05.297.128.489.156.082.012.117.11.058.164C1.633 3.926.563 5.117.56 6.719a.1.1 0 0 0 .101.101q.016.001.031-.004l.485-.144c.012 0 .023-.004.031-.004.074 0 .129.074.09.144-.328.594-1.125 2.344-.344 4.176.016.04.055.059.094.059a.1.1 0 0 0 .062-.016.87.87 0 0 0 .329-.41q.004-.007.003-.008c.043-.066.082-.093.114-.093.039 0 .07.046.086.097.152.524.593 1.574 1.785 2.457q.029.022.062.02a.1.1 0 0 0 .09-.051.83.83 0 0 0 .09-.441q-.006-.076.023-.075c.133 0 .762 1.036 1.844 1.73A14.2 14.2 0 0 0 8 15.5c.02 0 1.172-.55 2.355-1.238 1.122-.653 1.793-1.727 1.93-1.727q.032-.002.027.067c-.011.218.051.359.098.445.02.031.055.047.094.047a.14.14 0 0 0 .066-.02c1.188-.883 1.633-1.933 1.79-2.457.015-.05.042-.097.085-.097.032 0 .067.023.11.09q.005.005.004.011a.84.84 0 0 0 .332.406c.015.016.039.02.058.02.04 0 .078-.024.094-.063.781-1.832-.016-3.578-.344-4.171-.039-.07.016-.145.09-.145q.013-.001.031.004l.485.14a.1.1 0 0 0 .03.008c.056 0 .106-.047.106-.101-.007-1.606-1.074-2.793-1.515-3.215-.063-.059-.028-.156.058-.168a1.8 1.8 0 0 0 .489-.152.1.1 0 0 0 .043-.137C13.336.997 11.563.516 10.16.516m0 0" style="stroke:none;fill-rule:nonzero;fill:#61422a;fill-opacity:1"/><path d="M48.406 36a10.963 10.963 0 0 1-10.968 10.969C31.406 46.969 26.5 42.062 26.5 36s4.906-10.969 10.938-10.969A10.963 10.963 0 0 1 48.406 36Zm0 0" style="fill-rule:nonzero;fill:#fbb03b;fill-opacity:1;stroke-width:3;stroke-linecap:butt;stroke-linejoin:round;stroke:#e68d00;stroke-opacity:1;stroke-miterlimit:10" transform="scale(.125)"/><path d="M5.46 4.5a.781.781 0 1 1-1.561 0 .781.781 0 0 1 1.562 0m0 0" style="stroke:none;fill-rule:nonzero;fill:#fff;fill-opacity:1"/><path d="M101.5 36c0 6.063-4.906 10.969-10.937 10.969A10.963 10.963 0 0 1 79.593 36a10.963 10.963 0 0 1 10.97-10.969c6.03 0 10.937 4.907 10.937 10.969Zm0 0" style="fill-rule:nonzero;fill:#fbb03b;fill-opacity:1;stroke-width:3;stroke-linecap:butt;stroke-linejoin:round;stroke:#e68d00;stroke-opacity:1;stroke-miterlimit:10" transform="scale(.125)"/><path d="M12.102 4.5a.781.781 0 1 1-1.563 0 .781.781 0 0 1 1.563 0m0 0" style="stroke:none;fill-rule:nonzero;fill:#fff;fill-opacity:1"/><path d="M8 12.684c-2.926 0-4.82-1.762-4.82-4.489 0-2.863 1.894-4.71 4.82-4.71s4.82 1.847 4.82 4.71c0 2.727-1.894 4.489-4.82 4.489m0 0" style="stroke:none;fill-rule:nonzero;fill:url(#b)"/><path d="M8 3.672c2.813 0 4.633 1.777 4.633 4.523 0 2.653-1.778 4.301-4.633 4.301s-4.633-1.648-4.633-4.3c0-2.747 1.82-4.524 4.633-4.524m0-.375c-3.2 0-5.008 2.133-5.008 4.898 0 2.766 1.863 4.676 5.008 4.676s5.008-1.91 5.008-4.676S11.199 3.297 8 3.297m0 0" style="stroke:none;fill-rule:nonzero;fill:#e68d00;fill-opacity:1"/><path d="M64 92.375v-9.5" style="fill:none;stroke-width:3;stroke-linecap:round;stroke-linejoin:round;stroke:#000;stroke-opacity:1;stroke-miterlimit:10" transform="scale(.125)"/><path d="M6.336 7.223c0-.485-.344-.88-.774-.88s-.773.395-.773.88c0 .484.344.875.774.875s.773-.391.773-.875M11.21 7.223c0-.485-.343-.88-.773-.88s-.773.395-.773.88c0 .484.344.875.774.875s.773-.391.773-.875m0 0" style="stroke:none;fill-rule:nonzero;fill:#404040;fill-opacity:1"/><path d="M8.328 9.95c0-.81-.703-1.462-1.57-1.462s-1.57.653-1.57 1.461c0 .805.703 1.461 1.57 1.461s1.57-.656 1.57-1.46m0 0" style="stroke:none;fill-rule:nonzero;fill:#fff;fill-opacity:1"/><path d="M10.813 9.95c0-.81-.704-1.462-1.57-1.462-.868 0-1.571.653-1.571 1.461 0 .805.703 1.461 1.57 1.461s1.57-.656 1.57-1.46m0 0" style="stroke:none;fill-rule:nonzero;fill:#fff;fill-opacity:1"/><path d="M8 9.438c.379 0 .727-.395.938-.708a.226.226 0 0 0-.192-.355H7.254c-.184 0-.297.203-.191.355.21.313.558.707.937.707m0 0" style="stroke:none;fill-rule:nonzero;fill:url(#c)"/><path d="M55.781 96.219 63.72 92.5M72.219 96.219 63.78 92.5" style="fill:none;stroke-width:3;stroke-linecap:round;stroke-linejoin:round;stroke:#000;stroke-opacity:1;stroke-miterlimit:10" transform="scale(.125)"/></svg>
